;FLAVOR:Marlin
;TIME:7071
;Filament used: 7.46354m
;Layer height: 0.28
;MINX:59.013
;MINY:34.013
;MINZ:0.28
;MAXX:120.987
;MAXY:145.987
;MAXZ:9.8
;Generated with Cura_SteamEngine 4.7.1
M140 S50
M105
M190 S50
M104 S210
M105
M109 S210
M82 ;absolute extrusion mode
M201 X500.00 Y500.00 Z100.00 E5000.00 ;Setup machine max acceleration
M203 X500.00 Y500.00 Z10.00 E50.00 ;Setup machine max feedrate
M204 P500.00 R1000.00 T500.00 ;Setup Print/Retract/Travel acceleration
M205 X8.00 Y8.00 Z0.40 E5.00 ;Setup Jerk
M220 S100 ;Reset Feedrate
M221 S100 ;Reset Flowrate

G28 ;Home

G92 E0 ;Reset Extruder
G1 Z2.0 F3000 ;Move Z Axis up
G1 X10.1 Y20 Z0.28 F5000.0 ;Move to start position
G1 X10.1 Y200.0 Z0.28 F1500.0 E15 ;Draw the first line
G1 X10.4 Y200.0 Z0.28 F5000.0 ;Move to side a little
G1 X10.4 Y20 Z0.28 F1500.0 E30 ;Draw the second line
G92 E0 ;Reset Extruder
G1 Z2.0 F3000 ;Move Z Axis up

G92 E0
G92 E0
G1 F2700 E-5
;LAYER_COUNT:35
;LAYER:0
M107
M205 X8 Y8
G0 F6000 X64.762 Y47.021 Z0.28
;TYPE:SKIRT
G1 F2700 E0
G1 F1200 X64.968 Y46.736 E0.01637
G1 X65.401 Y46.157 E0.05004
G1 X65.612 Y45.884 E0.06611
G1 X66.003 Y45.394 E0.0953
G1 X66.266 Y45.077 E0.11448
G1 X66.725 Y44.544 E0.14723
G1 X66.956 Y44.284 E0.16342
G1 X67.447 Y43.749 E0.19724
G1 X67.72 Y43.462 E0.21568
G1 X68.155 Y43.021 E0.24453
G1 X68.401 Y42.779 E0.26059
G1 X68.88 Y42.323 E0.29139
G1 X69.176 Y42.052 E0.31008
G1 X69.714 Y41.576 E0.34353
G1 X69.973 Y41.353 E0.35944
G1 X70.446 Y40.96 E0.38807
G1 X70.753 Y40.715 E0.40636
G1 X71.372 Y40.237 E0.44278
G1 X71.666 Y40.018 E0.45985
G1 X72.138 Y39.678 E0.48694
G1 X72.436 Y39.47 E0.50386
G1 X73.014 Y39.082 E0.53628
G1 X73.323 Y38.882 E0.55342
G1 X73.844 Y38.557 E0.58201
G1 X74.177 Y38.358 E0.60007
G1 X74.915 Y37.933 E0.63973
G1 X75.243 Y37.751 E0.65719
G1 X75.674 Y37.522 E0.67992
G1 X75.99 Y37.361 E0.69643
G1 X76.683 Y37.021 E0.73238
G1 X77.042 Y36.853 E0.75083
G1 X77.633 Y36.589 E0.78097
G1 X77.943 Y36.455 E0.7967
G1 X78.601 Y36.185 E0.82982
G1 X78.95 Y36.049 E0.84726
G1 X79.532 Y35.833 E0.87617
G1 X79.899 Y35.704 E0.89428
G1 X80.569 Y35.482 E0.92715
G1 X80.92 Y35.373 E0.94426
G1 X81.575 Y35.18 E0.97606
G1 X81.931 Y35.081 E0.99326
G1 X82.581 Y34.913 E1.02452
G1 X82.936 Y34.828 E1.04152
G1 X83.518 Y34.698 E1.06929
G1 X83.893 Y34.621 E1.08711
G1 X84.732 Y34.464 E1.12686
G1 X85.123 Y34.398 E1.14532
G1 X85.663 Y34.317 E1.17075
G1 X85.992 Y34.272 E1.18621
G1 X86.579 Y34.202 E1.21374
G1 X86.952 Y34.164 E1.2312
G1 X87.848 Y34.088 E1.27307
G1 X88.231 Y34.063 E1.29094
G1 X88.753 Y34.037 E1.31528
G1 X89.121 Y34.024 E1.33242
G1 X89.796 Y34.013 E1.36386
G1 X90.167 Y34.014 E1.38113
G1 X90.971 Y34.028 E1.41858
G1 X91.341 Y34.04 E1.43582
G1 X91.81 Y34.064 E1.45768
G1 X92.179 Y34.09 E1.47491
G1 X92.991 Y34.159 E1.51285
G1 X93.367 Y34.197 E1.53045
G1 X94.052 Y34.279 E1.56258
G1 X94.405 Y34.327 E1.57916
G1 X94.975 Y34.414 E1.60601
G1 X95.35 Y34.478 E1.62373
G1 X96.067 Y34.613 E1.6577
G1 X96.432 Y34.688 E1.67505
G1 X97.094 Y34.836 E1.70664
G1 X97.473 Y34.928 E1.7248
G1 X98.17 Y35.11 E1.75834
G1 X98.489 Y35.198 E1.77375
G1 X99.058 Y35.365 E1.80136
G1 X99.434 Y35.483 E1.81971
G1 X100.101 Y35.705 E1.85245
G1 X100.454 Y35.829 E1.86987
G1 X101.09 Y36.065 E1.90146
G1 X101.435 Y36.2 E1.91871
G1 X102.101 Y36.473 E1.95222
G1 X102.45 Y36.623 E1.96991
G1 X102.969 Y36.857 E1.99642
G1 X103.305 Y37.015 E2.01371
G1 X104.063 Y37.388 E2.05305
G1 X104.387 Y37.555 E2.07002
G1 X104.799 Y37.775 E2.09177
G1 X105.115 Y37.95 E2.10859
G1 X105.836 Y38.366 E2.14735
G1 X106.155 Y38.558 E2.16469
G1 X106.651 Y38.867 E2.1919
G1 X106.968 Y39.071 E2.20945
G1 X107.58 Y39.482 E2.24378
G1 X107.888 Y39.697 E2.26127
G1 X108.403 Y40.069 E2.29085
G1 X108.698 Y40.289 E2.30799
G1 X109.279 Y40.739 E2.34221
G1 X109.566 Y40.97 E2.35936
G1 X110 Y41.33 E2.38562
G1 X110.286 Y41.575 E2.40315
G1 X110.881 Y42.104 E2.44022
G1 X111.161 Y42.362 E2.45795
G1 X111.608 Y42.788 E2.48671
G1 X111.869 Y43.045 E2.50376
G1 X112.297 Y43.481 E2.53221
G1 X112.548 Y43.745 E2.54917
G1 X113.09 Y44.335 E2.58648
G1 X113.353 Y44.632 E2.60495
G1 X113.74 Y45.085 E2.63269
G1 X113.953 Y45.343 E2.64827
G1 X114.377 Y45.871 E2.67981
G1 X114.62 Y46.185 E2.69829
G1 X115.023 Y46.724 E2.72963
G1 X115.314 Y47.125 E2.7527
G1 X115.604 Y47.544 E2.77643
G1 X115.79 Y47.821 E2.79197
G1 X116.21 Y48.469 E2.82792
G1 X116.414 Y48.797 E2.84591
G1 X116.761 Y49.376 E2.87734
G1 X116.951 Y49.705 E2.89503
G1 X117.231 Y50.211 E2.92196
G1 X117.397 Y50.524 E2.93846
G1 X117.781 Y51.274 E2.97769
G1 X117.95 Y51.617 E2.9955
G1 X118.161 Y52.067 E3.01864
G1 X118.314 Y52.41 E3.03613
G1 X118.646 Y53.186 E3.07543
G1 X118.785 Y53.526 E3.09253
G1 X118.981 Y54.03 E3.11771
G1 X119.107 Y54.37 E3.1346
G1 X119.34 Y55.033 E3.16732
G1 X119.46 Y55.393 E3.18499
G1 X119.692 Y56.134 E3.22115
G1 X119.798 Y56.497 E3.23876
G1 X119.956 Y57.07 E3.26643
G1 X120.044 Y57.409 E3.28274
G1 X120.177 Y57.959 E3.30909
G1 X120.261 Y58.336 E3.32707
G1 X120.446 Y59.239 E3.37
G1 X120.514 Y59.602 E3.38719
G1 X120.587 Y60.031 E3.40746
G1 X120.643 Y60.398 E3.42474
G1 X120.755 Y61.224 E3.46356
G1 X120.8 Y61.601 E3.48124
G1 X120.869 Y62.287 E3.51334
G1 X120.899 Y62.642 E3.52993
G1 X120.933 Y63.142 E3.55326
G1 X120.952 Y63.51 E3.57042
G1 X120.981 Y64.354 E3.60975
G1 X120.987 Y64.732 E3.62735
G1 X120.987 Y65.259 E3.65189
G1 X120.98 Y65.648 E3.67001
G1 X120.949 Y66.525 E3.71087
G1 X120.931 Y66.879 E3.72737
G1 X120.897 Y67.381 E3.7508
G1 X120.866 Y67.751 E3.76809
G1 X120.801 Y68.39 E3.798
G1 X120.756 Y68.761 E3.8154
G1 X120.632 Y69.672 E3.85821
G1 X120.575 Y70.047 E3.87587
G1 X120.51 Y70.426 E3.89378
G1 X120.443 Y70.783 E3.91069
G1 X120.181 Y72.057 E3.97126
G1 X119.713 Y74.508 E4.08745
G1 X119.306 Y77.02 E4.20594
G1 X118.972 Y79.532 E4.32394
G1 X118.712 Y82.016 E4.44024
G1 X118.524 Y84.498 E4.55614
G1 X118.403 Y87.052 E4.6752
G1 X118.355 Y89.539 E4.79103
G1 X118.379 Y92.099 E4.91024
G1 X118.472 Y94.583 E5.02598
G1 X118.637 Y97.083 E5.14265
G1 X118.875 Y99.613 E5.26097
G1 X119.181 Y102.1 E5.37765
G1 X119.558 Y104.589 E5.49487
G1 X120.183 Y107.961 E5.65456
G1 X120.449 Y109.259 E5.71626
G1 X120.517 Y109.618 E5.73327
G1 X120.587 Y110.029 E5.75269
G1 X120.643 Y110.398 E5.77006
G1 X120.755 Y111.224 E5.80888
G1 X120.8 Y111.601 E5.82656
G1 X120.869 Y112.287 E5.85866
G1 X120.899 Y112.642 E5.87525
G1 X120.933 Y113.142 E5.89859
G1 X120.952 Y113.51 E5.91575
G1 X120.981 Y114.354 E5.95507
G1 X120.987 Y114.732 E5.97267
G1 X120.987 Y115.259 E5.99721
G1 X120.98 Y115.648 E6.01533
G1 X120.949 Y116.525 E6.05619
G1 X120.931 Y116.879 E6.0727
G1 X120.897 Y117.381 E6.09612
G1 X120.866 Y117.751 E6.11341
G1 X120.801 Y118.39 E6.14332
G1 X120.756 Y118.761 E6.16072
G1 X120.632 Y119.672 E6.20353
G1 X120.574 Y120.051 E6.22139
G1 X120.508 Y120.435 E6.23953
G1 X120.443 Y120.78 E6.25588
G1 X120.266 Y121.644 E6.29694
G1 X120.182 Y122.02 E6.31488
G1 X120.044 Y122.591 E6.34224
G1 X119.954 Y122.939 E6.35898
G1 X119.777 Y123.579 E6.3899
G1 X119.669 Y123.945 E6.40766
G1 X119.471 Y124.575 E6.43841
G1 X119.354 Y124.928 E6.45573
G1 X119.094 Y125.667 E6.49221
G1 X118.965 Y126.014 E6.50945
G1 X118.768 Y126.519 E6.53469
G1 X118.625 Y126.866 E6.55216
G1 X118.321 Y127.573 E6.588
G1 X118.177 Y127.895 E6.60442
G1 X117.931 Y128.42 E6.63142
G1 X117.758 Y128.773 E6.64973
G1 X117.379 Y129.512 E6.6884
G1 X117.205 Y129.837 E6.70556
G1 X116.937 Y130.319 E6.73124
G1 X116.76 Y130.626 E6.74775
G1 X116.43 Y131.177 E6.77765
G1 X116.227 Y131.502 E6.79549
G1 X115.781 Y132.191 E6.83371
G1 X115.559 Y132.521 E6.85223
G1 X115.235 Y132.984 E6.87855
G1 X115.027 Y133.272 E6.89509
G1 X114.594 Y133.85 E6.92872
G1 X114.38 Y134.127 E6.94502
G1 X113.988 Y134.617 E6.97424
G1 X113.734 Y134.922 E6.99272
G1 X113.276 Y135.454 E7.0254
G1 X113.047 Y135.712 E7.04147
G1 X112.56 Y136.243 E7.07502
G1 X112.292 Y136.524 E7.0931
G1 X111.853 Y136.97 E7.12224
G1 X111.59 Y137.229 E7.13943
G1 X111.11 Y137.685 E7.17026
G1 X110.831 Y137.942 E7.18792
G1 X110.294 Y138.418 E7.22133
G1 X110.028 Y138.645 E7.23762
G1 X109.554 Y139.039 E7.26632
G1 X109.244 Y139.288 E7.28483
G1 X108.626 Y139.765 E7.32118
G1 X108.338 Y139.98 E7.33792
G1 X107.865 Y140.321 E7.36507
G1 X107.559 Y140.533 E7.38241
G1 X106.982 Y140.92 E7.41476
G1 X106.677 Y141.118 E7.43169
G1 X106.156 Y141.443 E7.46028
G1 X105.819 Y141.645 E7.47858
G1 X105.082 Y142.069 E7.51817
G1 X104.766 Y142.244 E7.53499
G1 X104.334 Y142.474 E7.55778
G1 X104.01 Y142.639 E7.57471
G1 X103.317 Y142.979 E7.61065
G1 X102.973 Y143.141 E7.62836
G1 X102.382 Y143.406 E7.65852
G1 X102.049 Y143.549 E7.67539
G1 X101.392 Y143.818 E7.70845
G1 X101.036 Y143.956 E7.72623
G1 X100.454 Y144.171 E7.75512
G1 X100.107 Y144.293 E7.77225
G1 X99.435 Y144.516 E7.80521
G1 X99.083 Y144.626 E7.82239
G1 X98.429 Y144.819 E7.85414
G1 X98.057 Y144.922 E7.87211
G1 X97.408 Y145.089 E7.90332
G1 X97.079 Y145.168 E7.91907
G1 X96.496 Y145.299 E7.9469
G1 X96.107 Y145.379 E7.96539
G1 X95.268 Y145.536 E8.00513
G1 X94.88 Y145.602 E8.02346
G1 X94.341 Y145.683 E8.04884
G1 X94.004 Y145.728 E8.06467
G1 X93.415 Y145.798 E8.09229
G1 X93.048 Y145.836 E8.10947
G1 X92.153 Y145.912 E8.1513
G1 X91.768 Y145.937 E8.16926
G1 X91.245 Y145.963 E8.19364
G1 X90.879 Y145.976 E8.2107
G1 X90.205 Y145.987 E8.24209
G1 X89.833 Y145.986 E8.25941
G1 X89.03 Y145.972 E8.2968
G1 X88.662 Y145.96 E8.31395
G1 X88.191 Y145.936 E8.33591
G1 X87.818 Y145.91 E8.35332
G1 X87.007 Y145.841 E8.39122
G1 X86.634 Y145.803 E8.40868
G1 X85.948 Y145.721 E8.44085
G1 X85.589 Y145.672 E8.45772
G1 X85.021 Y145.585 E8.48448
G1 X84.653 Y145.523 E8.50185
G1 X83.935 Y145.388 E8.53587
G1 X83.583 Y145.315 E8.55261
G1 X82.921 Y145.168 E8.58419
G1 X82.523 Y145.072 E8.60325
G1 X81.827 Y144.89 E8.63675
G1 X81.5 Y144.799 E8.65256
G1 X80.93 Y144.631 E8.68023
G1 X80.571 Y144.519 E8.69774
G1 X79.903 Y144.297 E8.73052
G1 X79.535 Y144.167 E8.74869
G1 X78.901 Y143.931 E8.78019
G1 X78.566 Y143.8 E8.79694
G1 X77.9 Y143.527 E8.83045
G1 X77.542 Y143.373 E8.8486
G1 X77.022 Y143.138 E8.87517
G1 X76.706 Y142.989 E8.89144
G1 X75.948 Y142.617 E8.93076
G1 X75.613 Y142.445 E8.94829
G1 X75.201 Y142.225 E8.97004
G1 X74.89 Y142.053 E8.98659
G1 X74.168 Y141.637 E9.02539
G1 X73.835 Y141.437 E9.04348
G1 X73.34 Y141.128 E9.07065
G1 X73.026 Y140.924 E9.08809
G1 X72.412 Y140.511 E9.12254
G1 X72.113 Y140.303 E9.1395
G1 X71.599 Y139.932 E9.16902
G1 X71.301 Y139.71 E9.18632
G1 X70.72 Y139.26 E9.22054
G1 X70.429 Y139.026 E9.23793
G1 X69.993 Y138.664 E9.26432
G1 X69.713 Y138.423 E9.28152
G1 X69.12 Y137.896 E9.31846
G1 X68.847 Y137.646 E9.3357
G1 X68.4 Y137.221 E9.36442
G1 X68.13 Y136.955 E9.38207
G1 X67.701 Y136.518 E9.41058
G1 X67.45 Y136.253 E9.42758
G1 X66.909 Y135.664 E9.46482
G1 X66.644 Y135.365 E9.48342
G1 X66.253 Y134.907 E9.51146
G1 X66.034 Y134.643 E9.52743
G1 X65.607 Y134.11 E9.55924
G1 X65.373 Y133.807 E9.57706
G1 X64.913 Y133.19 E9.6129
G1 X64.689 Y132.879 E9.63074
G1 X64.396 Y132.456 E9.6547
G1 X64.208 Y132.174 E9.67049
G1 X63.79 Y131.529 E9.70628
G1 X63.586 Y131.202 E9.72422
G1 X63.239 Y130.623 E9.75565
G1 X63.056 Y130.307 E9.77266
G1 X62.774 Y129.799 E9.79971
G1 X62.601 Y129.473 E9.8169
G1 X62.218 Y128.725 E9.85603
G1 X62.045 Y128.372 E9.87433
G1 X61.835 Y127.923 E9.89741
G1 X61.683 Y127.584 E9.91471
G1 X61.352 Y126.809 E9.95395
G1 X61.22 Y126.486 E9.9702
G1 X61.023 Y125.981 E9.99544
G1 X60.895 Y125.634 E10.01266
G1 X60.661 Y124.969 E10.04549
G1 X60.539 Y124.604 E10.06341
G1 X60.308 Y123.866 E10.09942
G1 X60.201 Y123.502 E10.11709
G1 X60.039 Y122.914 E10.14549
G1 X59.953 Y122.58 E10.16155
G1 X59.823 Y122.043 E10.18727
G1 X59.736 Y121.656 E10.20574
G1 X59.552 Y120.755 E10.24856
G1 X59.484 Y120.391 E10.26581
G1 X59.411 Y119.96 E10.28616
G1 X59.357 Y119.603 E10.30297
G1 X59.245 Y118.778 E10.34174
G1 X59.2 Y118.397 E10.35961
G1 X59.131 Y117.71 E10.39176
G1 X59.101 Y117.346 E10.40876
G1 X59.067 Y116.838 E10.43247
G1 X59.049 Y116.484 E10.44898
G1 X59.02 Y115.648 E10.48793
G1 X59.013 Y115.267 E10.50567
G1 X59.013 Y114.742 E10.53012
G1 X59.02 Y114.354 E10.54819
G1 X59.051 Y113.476 E10.5891
G1 X59.07 Y113.112 E10.60607
G1 X59.105 Y112.601 E10.62992
G1 X59.135 Y112.243 E10.64665
G1 X59.199 Y111.612 E10.67618
G1 X59.244 Y111.237 E10.69377
G1 X59.368 Y110.327 E10.73653
G1 X59.424 Y109.957 E10.75396
G1 X59.489 Y109.577 E10.77191
G1 X59.558 Y109.215 E10.78907
G1 X59.807 Y108.006 E10.84654
G1 X60.286 Y105.497 E10.96548
G1 X60.695 Y102.971 E11.08464
G1 X61.028 Y100.472 E11.20203
G1 X61.288 Y97.983 E11.31856
G1 X61.476 Y95.504 E11.43432
G1 X61.597 Y92.949 E11.55343
G1 X61.645 Y90.46 E11.66935
G1 X61.621 Y87.901 E11.78851
G1 X61.528 Y85.416 E11.9043
G1 X61.363 Y82.916 E12.02097
G1 X61.125 Y80.386 E12.13929
G1 X60.819 Y77.899 E12.25597
G1 X60.442 Y75.411 E12.37315
G1 X59.815 Y72.03 E12.53326
G1 X59.551 Y70.741 E12.59453
G1 X59.483 Y70.382 E12.61155
G1 X59.413 Y69.971 E12.63096
G1 X59.357 Y69.6 E12.64843
G1 X59.245 Y68.773 E12.68729
G1 X59.2 Y68.398 E12.70488
G1 X59.131 Y67.712 E12.73698
G1 X59.101 Y67.346 E12.75408
G1 X59.067 Y66.838 E12.77779
G1 X59.049 Y66.484 E12.79429
G1 X59.02 Y65.648 E12.83324
G1 X59.013 Y65.267 E12.85099
G1 X59.013 Y64.742 E12.87543
G1 X59.02 Y64.354 E12.8935
G1 X59.051 Y63.476 E12.93441
G1 X59.07 Y63.112 E12.95139
G1 X59.105 Y62.601 E12.97524
G1 X59.135 Y62.243 E12.99196
G1 X59.199 Y61.612 E13.0215
G1 X59.244 Y61.237 E13.03908
G1 X59.368 Y60.327 E13.08185
G1 X59.425 Y59.953 E13.09946
G1 X59.491 Y59.568 E13.11765
G1 X59.557 Y59.219 E13.13419
G1 X59.734 Y58.355 E13.17526
G1 X59.821 Y57.968 E13.19373
G1 X59.964 Y57.379 E13.22195
G1 X60.053 Y57.033 E13.23859
G1 X60.225 Y56.413 E13.26855
G1 X60.328 Y56.065 E13.28545
G1 X60.526 Y55.433 E13.31629
G1 X60.648 Y55.067 E13.33425
G1 X60.908 Y54.329 E13.37069
G1 X61.035 Y53.986 E13.38772
G1 X61.232 Y53.481 E13.41296
G1 X61.377 Y53.127 E13.43077
G1 X61.688 Y52.405 E13.46738
G1 X61.834 Y52.081 E13.48392
G1 X62.074 Y51.57 E13.51021
G1 X62.238 Y51.237 E13.5275
G1 X62.615 Y50.5 E13.56604
G1 X62.798 Y50.157 E13.58415
G1 X63.067 Y49.674 E13.60989
G1 X63.251 Y49.357 E13.62696
G1 X63.583 Y48.805 E13.65695
G1 X63.773 Y48.5 E13.67368
G1 X64.218 Y47.812 E13.71184
G1 X64.439 Y47.483 E13.73029
G1 X64.762 Y47.021 E13.75654
G0 F6000 X65.09 Y47.25
G1 F1200 X65.288 Y46.976 E13.77228
G1 X65.721 Y46.397 E13.80595
G1 X65.925 Y46.134 E13.82145
G1 X66.316 Y45.644 E13.85064
G1 X66.569 Y45.338 E13.86912
G1 X67.028 Y44.805 E13.90188
G1 X67.25 Y44.555 E13.91745
G1 X67.741 Y44.02 E13.95126
G1 X68.005 Y43.743 E13.96908
G1 X68.44 Y43.302 E13.99792
G1 X68.677 Y43.069 E14.0134
G1 X69.156 Y42.613 E14.04419
G1 X69.441 Y42.351 E14.06222
G1 X69.979 Y41.875 E14.09567
G1 X70.229 Y41.661 E14.11099
G1 X70.702 Y41.268 E14.13963
G1 X70.997 Y41.031 E14.15725
G1 X71.616 Y40.553 E14.19366
G1 X71.899 Y40.342 E14.2101
G1 X72.371 Y40.002 E14.23719
G1 X72.659 Y39.802 E14.25351
G1 X73.237 Y39.414 E14.28593
G1 X73.535 Y39.221 E14.30246
G1 X74.056 Y38.896 E14.33105
G1 X74.376 Y38.704 E14.34843
G1 X75.114 Y38.279 E14.38809
G1 X75.43 Y38.104 E14.40491
G1 X75.861 Y37.875 E14.42763
G1 X76.166 Y37.72 E14.44356
G1 X76.859 Y37.38 E14.47951
G1 X77.205 Y37.218 E14.4973
G1 X77.796 Y36.954 E14.52744
G1 X78.095 Y36.825 E14.5426
G1 X78.753 Y36.555 E14.57572
G1 X79.089 Y36.424 E14.59251
G1 X79.671 Y36.208 E14.62142
G1 X80.025 Y36.084 E14.63888
G1 X80.695 Y35.862 E14.67175
G1 X81.033 Y35.756 E14.68824
G1 X81.688 Y35.563 E14.72004
G1 X82.031 Y35.468 E14.73661
G1 X82.681 Y35.3 E14.76787
G1 X83.023 Y35.218 E14.78425
G1 X83.605 Y35.088 E14.81202
G1 X83.966 Y35.014 E14.82918
G1 X84.805 Y34.857 E14.86892
G1 X85.183 Y34.793 E14.88678
G1 X85.723 Y34.712 E14.9122
G1 X86.04 Y34.67 E14.92709
G1 X86.627 Y34.6 E14.95462
G1 X86.986 Y34.563 E14.97142
G1 X87.882 Y34.487 E15.01329
G1 X88.251 Y34.462 E15.03052
G1 X88.773 Y34.436 E15.05485
G1 X89.127 Y34.424 E15.07135
G1 X89.802 Y34.413 E15.10278
G1 X90.16 Y34.414 E15.11945
G1 X90.964 Y34.428 E15.15689
G1 X91.321 Y34.44 E15.17353
G1 X91.79 Y34.464 E15.19539
G1 X92.146 Y34.488 E15.21201
G1 X92.958 Y34.557 E15.24995
G1 X93.32 Y34.594 E15.2669
G1 X94.005 Y34.676 E15.29902
G1 X94.344 Y34.722 E15.31495
G1 X94.914 Y34.809 E15.3418
G1 X95.276 Y34.871 E15.3589
G1 X95.993 Y35.006 E15.39288
G1 X96.345 Y35.078 E15.40961
